X:130
T:Hunter's House, The
R:reel
S:https://thesession.org/tunes/472
M:4/4
L:1/8
Z:Josh Kane
K:Gmajor
|: B2dB cAFA | G2BG DGBG | B2dB cAFA |
GBAG F~D3 |D~G3 BGFG | BGAF GABc |
defg agfd |1 cAFA G2GA :|2 cAFA G2Bc ||
|: d2gB aBgB | B2gf edcB | A~a3 b~a3 | A2ag fedc |
B2gB aBgB | B2gf edcB | cBAg fgaf | gdBd cAFA :|

